X: 1
T: Whinham
R: reel
Z: 2011 John Chambers <jc:trillian.mit.edu>
S: printed MS from Mike Briggs
M: C|
L: 1/8
K: G
D \
| "G"G2DG B2GB | "G"d2ed "(Am)"cBAG \
|1,3 "D"F2DF A2FA | "D7"d2fe dcBA \
:|2,4 "D7"F2DF AcAF | "G"G2B2 "fine"G2 :|
K: D
AG \
| "D"FAdA fAdA | FAdA fAdA \
|1 "A7"cAce gecA | cAce gecA \
:2 "A7"cAce gecA | "D"d2=c2 "d.C"B2A2 |]
